**harm	**harte	**timestamp	**phrase	**leadinstrument	**kern
*M12/8	*M12/8	*	*	*	*
*G:	*G:	*	*	*	*G:
1r;	N	0	.	r	1r;
=1	=1	=1	=1	=1	=1
*>A_intro	*>A_intro	*>A_intro	*>A_intro	*>A_intro	*>A_intro
2.IV7	C:maj7	0.511	newline	r	2C 2e 2g 2b
2.IV	C:maj6	2.205	.	r	2C 2e 2g
=2	=2	=2	=2	=2	=2
2.-VIIm7	F:7(#11)	3.899	.	r	2F 2a 2cc 2ee
2.-VIIm7	F:7	5.593	.	r	2F 2a 2cc 2ee
=3	=3	=3	=3	=3	=3
1.I7	G:maj7	7.287	.	r	1G 1b 1dd 1ff#
=4	=4	=4	=4	=4	=4
8%9I7	G:maj7	10.675	.	r	8G 8b 8dd 8ff#
4.#io	G#:dim	13.216	.	r	4G# 4b 4dd
=5	=5	=5	=5	=5	=5
*>B_verse	*>B_verse	*>B_verse	*>B_verse	*>B_verse	*>B_verse
1.V7c	D:7/5	14.063	newline	voice	1d 1f# 1A 1cc
=6	=6	=6	=6	=6	=6
1.V7c	D:7/5	17.409	.	voice	1d 1f# 1A 1cc
=7	=7	=7	=7	=7	=7
1.I	G:maj	20.755	.	voice	1G 1b 1dd
=8	=8	=8	=8	=8	=8
1.I	G:maj	24.101	.	voice	1G 1b 1dd
=9	=9	=9	=9	=9	=9
2.V7	D:7	27.447	newline	voice	2D 2f# 2a 2cc
2.V7c	D:7/5	29.135	.	voice	2d 2f# 2A 2cc
=10	=10	=10	=10	=10	=10
1.V7	D:7	30.823	.	voice	1D 1f# 1a 1cc
=11	=11	=11	=11	=11	=11
1.I	G:maj	34.199	.	voice	1G 1b 1dd
=12	=12	=12	=12	=12	=12
1.I	G:maj	37.575	.	voice	1G 1b 1dd
=13	=13	=13	=13	=13	=13
*>C_chorus	*>C_chorus	*>C_chorus	*>C_chorus	*>C_chorus	*>C_chorus
1.vi	E:min	40.951	newline	voice	1E 1g 1b
=14	=14	=14	=14	=14	=14
1.III	B:maj	44.304	.	voice	1B 1dd# 1ff#
=15	=15	=15	=15	=15	=15
1.vi	E:min	47.658	.	voice	1E 1g 1b
=16	=16	=16	=16	=16	=16
2.IV7	C:maj7	51.012	.	voice	2C 2e 2g 2b
2.IV	C:maj6	52.689	.	voice	2C 2e 2g
=17	=17	=17	=17	=17	=17
1.V7	D:7	54.366	newline	voice	1D 1f# 1a 1cc
=18	=18	=18	=18	=18	=18
1.V7	D:7	57.732	.	voice	1D 1f# 1a 1cc
=19	=19	=19	=19	=19	=19
2.I	G:maj	61.098	.	voice	2G 2b 2dd
2.IV	C:maj	62.782	.	voice	2C 2e 2g
=20	=20	=20	=20	=20	=20
1.I	G:maj	64.465	.	voice	1G 1b 1dd
=21	=21	=21	=21	=21	=21
*>C2_bridge	*>C2_bridge	*>C2_bridge	*>C2_bridge	*>C2_bridge	*>C2_bridge
1.vi	E:min	67.831	newline	voice	1E 1g 1b
=22	=22	=22	=22	=22	=22
1.III	B:maj	71.175	.	voice	1B 1dd# 1ff#
=23	=23	=23	=23	=23	=23
1.vi	E:min	74.519	.	voice	1E 1g 1b
=24	=24	=24	=24	=24	=24
2.IV7	C:maj7	77.862	.	voice	2C 2e 2g 2b
2.IV	C:maj6	79.534	.	voice	2C 2e 2g
=25	=25	=25	=25	=25	=25
1.V7	D:7	81.206	newline	voice	1D 1f# 1a 1cc
=26	=26	=26	=26	=26	=26
1.V7	D:7	84.551	.	voice	1D 1f# 1a 1cc
=27	=27	=27	=27	=27	=27
2.I	G:maj	87.897	.	voice	2G 2b 2dd
2.IV	C:maj	89.569	.	voice	2C 2e 2g
=28	=28	=28	=28	=28	=28
8%9I	G:maj	91.242	.	voice	8G 8b 8dd
4.#io	G#:dim	93.751	.	voice	4G# 4b 4dd
=29	=29	=29	=29	=29	=29
*>B_verse	*>B_verse	*>B_verse	*>B_verse	*>B_verse	*>B_verse
2.V7	D:7	94.587	newline	voice	2D 2f# 2a 2cc
2.V7c	D:7/5	96.267	.	voice	2d 2f# 2A 2cc
=30	=30	=30	=30	=30	=30
2.V7	D:7	97.946	.	voice	2D 2f# 2a 2cc
2.V7c	D:7/5	99.625	.	voice	2d 2f# 2A 2cc
=31	=31	=31	=31	=31	=31
1.I	G:maj	101.304	.	voice	1G 1b 1dd
=32	=32	=32	=32	=32	=32
1.I	G:maj	104.663	.	voice	1G 1b 1dd
=33	=33	=33	=33	=33	=33
2.V7	D:7	108.021	newline	voice	2D 2f# 2a 2cc
2.V7c	D:7/5	109.698	.	voice	2d 2f# 2A 2cc
=34	=34	=34	=34	=34	=34
1.V7	D:7	111.375	.	voice	1D 1f# 1a 1cc
=35	=35	=35	=35	=35	=35
1.I	G:maj	114.729	.	voice	1G 1b 1dd
=36	=36	=36	=36	=36	=36
1.I	G:maj	118.083	.	voice	1G 1b 1dd
=37	=37	=37	=37	=37	=37
*>C_chorus	*>C_chorus	*>C_chorus	*>C_chorus	*>C_chorus	*>C_chorus
1.vi	E:min	121.437	newline	voice	1E 1g 1b
=38	=38	=38	=38	=38	=38
1.III	B:maj	124.795	.	voice	1B 1dd# 1ff#
=39	=39	=39	=39	=39	=39
1.vi	E:min	128.153	.	voice	1E 1g 1b
=40	=40	=40	=40	=40	=40
2.IV7	C:maj7	131.512	.	voice	2C 2e 2g 2b
2.IV	C:maj6	133.191	.	voice	2C 2e 2g
=41	=41	=41	=41	=41	=41
1.V7	D:7	134.87	newline	voice	1D 1f# 1a 1cc
=42	=42	=42	=42	=42	=42
1.V7	D:7	138.231	.	voice	1D 1f# 1a 1cc
=43	=43	=43	=43	=43	=43
4.I	G:maj	141.592	.	voice	4G 4b 4dd
4.Ib	G:maj/3	142.432	.	voice	4g 4B 4dd
2.IV	C:maj	143.272	.	voice	2C 2e 2g
=44	=44	=44	=44	=44	=44
1.I	G:maj	144.953	.	voice	1G 1b 1dd
1r;	N	149.714	.	r	1r;
1r;	N	153.919	.	r	1r;
*-	*-	*-	*-	*-	*-
!!!OTL: Everybody Loves Me But You
!!!COC: Brenda Lee
!!!BillboardChartDate: 1962/06/16
!!!BillboardPeak: 6
!!!BillboardWeeksOnChart: 11
!!!SampleTargetRank: 21
!!!SampleActualRank: 21
!!!SampleID#: 0790
!!!RDF**harmony: **recip + pitch class of root + harmonic quality
!!!RDF**harte: Chris Harte's syntax, used by MIREX
!!!RDF**phrase: newline = linebreak in original McGill transcription
!!!RDF**timestamp: McGill audio timestamp in seconds
!!!RDF**leadinstrument: original McGill primary instrumentation annotation
!!!RDT: 2017/01/12/
!!!ENC: Nathaniel Condit-Schultz
!!!EST: Awating manual error checking and editing.
